!!!!SEGMENT: pl-wtm--r-2481--001_hertz-michal--marsz.krn
!!!cenid: 18xx:2395
!!!COM: Hertz, Michał
!!!COM-rism: pe41023359
!!!CDT: 1844/09/28-~1918
!!!CNT: Polish
!!!OTL: Marsz
!!!PDT:
!!!AGN: Secular; March
!!!SMS-siglum: PL-Wtm
!!!SMS-shelfmark: R 2481
!!!NIFC-rismID: 1001082218
!!!URL-scan: http://repozytorium.nifc.pl/skany/pl-wtm-nut--r2481
!!!ONB-nifc: UWAGA: w zbiorze: 1. Marsz (oznaczony jako 1.) i 2. Polka (oznaczona jako 2.)
!!!SMS-variant:
!!!SMS-altvar:
!!!OMD: Allegro.
**kern	**kern	**dynam
*part1	*part1	*part1
*staff2	*staff1	*
*Fortepian	*I"Fortepian	*
*clefF4	*clefG2	*
*k[]	*k[]	*
*M2/2	*M2/2	*
*met(c|)	*met(c|)	*
=1	=1	=1
*	*^	*
!	!LO:TX:t=P:problem:all\left, middle, right:global	!	!
!	!LO:TX:a:B:t=1.	!	!LO:DY:rj
4r	2e^/	4r	f
4C/	.	4c 4G\	.
4r	2g^/	4r	.
4B\	.	4e 4c\	.
=2	=2	=2	=2
4r	2.cc^/	4r	.
4A\	.	4a 4e\	.
4G\	.	4a 4e\	.
4r	8b/L	4r	.
.	8cc/J	.	.
=3	=3	=3	=3
4r	(<8dd/L	4r	.
.	8ee/)	.	.
!	!LO:TX:t=P:problem:staccato na górze i na dole	!	!
4F\	8ff'/	4a\	.
!	!LO:TX:t=P:problem:staccato na górze i na dole	!	!
.	8dd'/J	.	.
4G\	(<8cc/L	4f\	.
.	8b/)	.	.
4B\	8a'/	4f 4d\	.
.	8g'/J	.	.
!!LO:LB:g=original
=4	=4	=4	=4
8r	(2ee/	4r	.
(8G\L	.	.	.
8A\)	.	[>4g [4f\	.
8A#X'\J	.	.	.
4B'\	4dd/)	(8gL] 8f\]	.
.	.	8a\J	.
4r	8r	8g\)	.
.	8g/	8r	.
=5	=5	=5	=5
4r	2e^/	4r	.
4C/	.	4c 4G\	.
4r	2g^/	4r	.
4B\	.	4e 4c\	.
=6	=6	=6	=6
4r	2.cc^/	4r	.
4A'\	.	4a 4e\	.
4G'\	.	4a 4e\	.
4r	8b/L	4r	.
.	8cc/J	.	.
=7	=7	=7	=7
4r	(<8dd/L	4r	.
.	8ee/)	.	.
4D\	8gg'/	4a\	.
.	8ff'/J	.	.
4F\	(<8ee/L	4a\	.
.	8dd/)	.	.
4G\	8cc'/	4g 4f\	.
.	8b'/J	.	.
!!LO:LB:g=original
=8	=8	=8	=8
8r	(2dd/	4r	.
(8G\L	.	.	.
8A\)	.	(4g 4f\	.
8B\J	.	.	.
4c\	4cc/)	4g 4e\)	.
4r	8b/L	4r	.
.	8cc/J	.	.
=9	=9	=9	=9
4r	2dd^/	4r	.
4F#X\	.	4cc 4a\	.
4r	4.ff#X^/	4r	.
4A\	.	4cc 4f#X\	.
.	8ee/	.	.
=10	=10	=10	=10
4r	[2ee^/	4r	.
4G\	.	4b 4g\	.
4B\	(8ee/L]	4g\	.
.	8dd/)	.	.
4r	8cc'/	4r	.
.	8b'/J	.	.
!!LO:LB:g=original
=11	=11	=11	=11
4r	(4dd/	4r	.
4A\	4cc/)	4a 4e\	.
4B\	4b/	4g 4e\	.
4c\	4a/	4g 4e\	.
=12	=12	=12	=12
4r	(2cc/	4r	.
(4d\	.	(4a (4f#X\	.
4G\)	4b/)	4g) 4d\)	.
4r	8g/L	4ryy	.
.	8a/J	.	.
=13	=13	=13	=13
4r	2b/	4r	.
!LO:TX:t=P:problem:4F# wymazane, błędnie znak F# zamiast D#	!	!	!
4D#X\	.	4a 4f#X\	.
4r	4.dd/	4r	.
4F#X\	.	4a 4d#X\	.
.	8cc/	.	.
=14	=14	=14	=14
4r	[2cc/	4r	.
4E\	.	4g 4e\	.
4G\	(8cc/L]	4e\	.
.	8b/)	.	.
4r	8a'/	4r	.
.	8g'/J	.	.
!!LO:LB:g=original
=15	=15	=15	=15
4r	(4cc/	4r	.
4C/	4a/)	4e 4c\	.
4D\	4g/	4d 4B\	.
4D\	4f#X/	4d 4c\	.
=16	=16	=16	=16
4r	(2a/	4r	.
(4D\	.	4f#X [4d (4c\	.
8G\L)	8g/L)	4d] 4B\)	.
8d\	8fn/	.	.
8c\	8e/	4r	.
8B\J	8d/J	.	.
=17	=17	=17	=17
*^	*	*	*
4c\	4r	2e^/	4r	.
4C/	2.ryy	.	4c 4G\	.
4r	.	2g^/	4r	.
4B\	.	.	4e 4c\	.
*v	*v	*	*	*
=18	=18	=18	=18
4r	2.cc^/	4r	.
4A\	.	4a 4e\	.
4G\	.	4a 4e\	.
4r	8b/L	4r	.
.	8cc/J	.	.
!!LO:LB:g=original
=19	=19	=19	=19
4r	(8dd/L	4r	.
.	8ee/)	.	.
4F\	8ff'/	4a\	.
.	8dd'/J	.	.
4G\	(8cc/L	4f\	.
.	8b/)	.	.
4B\	8a'/	4f 4d\	.
.	8g'/J	.	.
=20	=20	=20	=20
8r	(2ee/	4r	.
(8G\L	.	.	.
8A\)	.	[>4g [4f\	.
8A#X\J	.	.	.
4B\	4dd/)	(8g]L 8f\]	.
.	.	8a\J	.
4r	8r	8g\)	.
.	8g/	8r	.
=21	=21	=21	=21
4r	2e^/	4r	.
4C/	.	4c 4G\	.
4r	2g^/	4r	.
4B\	.	4e 4c\	.
=22	=22	=22	=22
4r	2.cc^/	4r	.
4A\	.	4a 4e\	.
4G\	.	4a 4e\	.
4r	8b/L	4r	.
.	8cc/J	.	.
!!LO:PB:g=original
=23	=23	=23	=23
4r	(8dd/L	4r	.
.	8ee/)	.	.
4D\	8gg'/	4a\	.
.	8ff'/J	.	.
4F\	(8ee/L	4a\	.
.	8dd/)	.	.
4G\	8cc'/	4f\	.
.	8b'/J	.	.
=24	=24	=24	=24
8r	(2dd/	4r	.
(8G\L	.	.	.
8A\)	.	(4g 4f\	.
8B'\J	.	.	.
4c\	4cc/)	4g 4e\)	.
8e\L	4ee/	8ee\L	.
8c\J	.	8cc\J	.
*	*v	*v	*
=25	=25	=25
(4A\	(4a\	.
8c\L)	8cc\L)	.
8A\J	8a\J	.
(4F\	((4f/	.
8A\L)	8a/L))	.
8F\J	8f/J	.
!!LO:LB:g=original
=26	=26	=26
(8.D\L	(8.d/L	.
16E\K	16e/K	.
8F\)	8f/)	.
8F#X'\J	8f#X'/J	.
4G\	4g/	.
4GG/	4b 4g 4fn\	.
=27	=27	=27
4C/	4cc 4g 4e\	.
4r	4r	.
4c\	4ee 4cc 4g\	.
4r	4r	.
=28	=28	=28
4C/	4c/	.
4r	4r	.
2r	2r	.
=||	=||	=||
*-	*-	*-
!!!system-decoration: {(s1,s2)}
!!!RDF**kern: > = above
!!!RDF**kern: < = below
!!!ENC: Katarzyna Serwa
!!!END: 2021-06-10
!!!ENC: Marta Lawrence
!!!END: 2021-10-09
